icons-rebrand/svg/disappearing-pen-light.svg

<svg width="32" height="32" viewBox="0 0 32 32" fill="none" xmlns="http://www.w3.org/2000/svg">
<path d="M22.7343 4.09383C22.6376 3.83603 22.3476 3.70223 22.0907 3.80183C21.455 4.04013 20.8876 4.40533 20.4061 4.88683L20.3133 4.97963C20.118 5.17493 20.118 5.49133 20.3133 5.68663C20.411 5.78433 20.5389 5.83313 20.6668 5.83313C20.7947 5.83313 20.9227 5.78433 21.0203 5.68663L21.1131 5.59383C21.493 5.21393 21.9402 4.92583 22.4422 4.73743C22.7001 4.64063 22.8319 4.35253 22.7343 4.09383Z" fill="#0F0F0F"/>
<path d="M17.5742 7.71874C17.7695 7.52344 18.0859 7.52344 18.2812 7.71874C18.4766 7.91404 18.4766 8.23044 18.2812 8.42574L4.6436 22.0634C4.5547 22.1523 4.5 22.2851 4.5 22.4101V26.9999C4.5 27.2753 4.7246 27.4999 5 27.4999H9.5898C9.7148 27.4999 9.8477 27.4452 9.9365 27.3564L15.3535 21.9394C15.5488 21.7441 15.8652 21.7441 16.0605 21.9394C16.2558 22.1347 16.2558 22.4511 16.0605 22.6464L10.6435 28.0634C10.3662 28.3407 9.9824 28.4999 9.5898 28.4999H5C4.1729 28.4999 3.5 27.827 3.5 26.9999V22.4101C3.5 22.0175 3.6592 21.6337 3.9365 21.3563L17.5742 7.71874Z" fill="#0F0F0F"/>
<path d="M18.1094 19.1836L19.4795 17.8135C19.6748 17.6182 19.9912 17.6182 20.1865 17.8135C20.3818 18.0088 20.3818 18.3252 20.1865 18.5205L18.8164 19.8906C18.7188 19.9883 18.5908 20.0371 18.4629 20.0371C18.335 20.0371 18.2071 19.9883 18.1094 19.8906C17.9141 19.6953 17.9141 19.3789 18.1094 19.1836Z" fill="#0F0F0F"/>
<path d="M22.2197 15.0732L23.5898 13.7031C23.7852 13.5078 24.1015 13.5078 24.2968 13.7031C24.4921 13.8984 24.4921 14.2148 24.2968 14.4101L22.9267 15.7802C22.8291 15.8779 22.7011 15.9267 22.5732 15.9267C22.4453 15.9267 22.3174 15.8779 22.2197 15.7802C22.0244 15.5849 22.0244 15.2685 22.2197 15.0732Z" fill="#0F0F0F"/>
<path d="M27.9102 9.24226C27.6553 9.14656 27.3643 9.27936 27.2686 9.53816C27.0811 10.047 26.7911 10.5011 26.4063 10.8868L26.3292 10.9639C26.1339 11.1592 26.1339 11.4756 26.3292 11.6709C26.4269 11.7686 26.5548 11.8174 26.6827 11.8174C26.8106 11.8174 26.9386 11.7686 27.0362 11.6709L27.1143 11.5928C27.6016 11.1035 27.9688 10.5283 28.2061 9.88376C28.3018 9.62506 28.1689 9.33696 27.9102 9.24226Z" fill="#0F0F0F"/>
<path d="M27.3525 6.49034C27.1865 6.49034 27.0234 6.40734 26.9287 6.25594C26.7783 6.01464 26.6016 5.79204 26.4042 5.59184C26.2011 5.39074 25.9726 5.21004 25.7294 5.06064C25.495 4.91514 25.4218 4.60754 25.5663 4.37214C25.7118 4.13674 26.0204 4.06644 26.2548 4.20904C26.5624 4.39944 26.8505 4.62604 27.1122 4.88484C27.3642 5.14064 27.5868 5.42194 27.7763 5.72464C27.9228 5.95904 27.8515 6.26764 27.6181 6.41414C27.5351 6.46594 27.4433 6.49034 27.3525 6.49034Z" fill="#0F0F0F"/>
</svg>

<svg xmlns="http://www.w3.org/2000/svg" width="32" height="32" viewBox="0 0 32 32"><path d="M22.734 4.094a.499.499 0 0 0-.643-.292 4.702 4.702 0 0 0-1.685 1.085l-.093.093a.5.5 0 1 0 .707.707l.093-.093c.38-.38.827-.668 1.33-.857a.5.5 0 0 0 .291-.643ZM17.574 7.719a.5.5 0 1 1 .707.707L4.644 22.063a.507.507 0 0 0-.144.347V27c0 .275.225.5.5.5h4.59a.507.507 0 0 0 .347-.144l5.417-5.417a.5.5 0 1 1 .707.707l-5.418 5.417a1.5 1.5 0 0 1-1.053.437H5c-.827 0-1.5-.673-1.5-1.5v-4.59c0-.393.16-.776.437-1.054L17.573 7.72ZM18.11 19.184l1.37-1.37a.5.5 0 1 1 .706.706l-1.37 1.37a.498.498 0 0 1-.707 0 .5.5 0 0 1 0-.706ZM22.22 15.073l1.37-1.37a.5.5 0 1 1 .707.707l-1.37 1.37a.498.498 0 0 1-.707 0 .5.5 0 0 1 0-.707ZM27.91 9.242a.501.501 0 0 0-.641.296 3.716 3.716 0 0 1-.863 1.349l-.077.077a.5.5 0 1 0 .707.707l.078-.078a4.714 4.714 0 0 0 1.092-1.71.5.5 0 0 0-.296-.64ZM27.352 6.49a.5.5 0 0 1-.423-.234 3.84 3.84 0 0 0-.525-.664 3.77 3.77 0 0 0-.675-.531.502.502 0 0 1-.163-.689.503.503 0 0 1 .689-.163c.307.19.596.417.857.676.252.256.475.537.664.84a.5.5 0 0 1-.424.765Z"/></svg>
